!!!COM: Bach, Johann Sebastian
!!!CDT: 1685/3//-1750/7/28/
!!!OTL@@DE: Ich dank' dir, Gott, fuer all' Wohltat
!!!AGN: 4-Part Chorale
!!!SCT: BH 223
!!!SCT: BWV 346
**harm	**root	**kern	**kern	**kern	**kern
!	!	!bass	!tenor	!alto	!soprno
*	*Iorgan	*Iorgan	*Iorgan	*Iorgan	*Iorgan
*M4/4	*M4/4	*M4/4	*M4/4	*M4/4	*M4/4
*met(c)	*met(c)	*met(c)	*met(c)	*met(c)	*met(c)
*MM60	*MM60	*MM60	*MM60	*MM60	*MM60
*k[f#c#g#d#a#]	*k[f#c#g#d#a#]	*k[f#c#g#d#a#]	*k[f#c#g#d#a#]	*k[f#c#g#d#a#]	*k[f#c#g#d#a#]
*B:	*B:	*B:	*B:	*B:	*B:
I;	4CC;	4BB	8D#	4B	4f#
.	.	.	8E	.	.
=1	=1	=1	=1	=1	=1
V7d/IV	4CC	4AA	4F#	4B	4d#
viib/V	4FF#	4GG#	4G#	4B	4e#
V;	4GG;	4FF#;	4C#;	4A#;	4f#;
Vb	4GG	4AA#	4F#	[4c#	4f#
=2	=2	=2	=2	=2	=2
I	4CC	4BB	[4F#	8c#]	4d#
.	.	.	.	4B	.
V	4GG	4FF#	8.F#]	.	4c#
.	.	.	.	8A#	.
.	.	.	16E	.	.
I;	4CC;	4BBB;	4D#;	4F#;	4B;
I	4CC	4BB	4D#	4F#	4B
=3	=3	=3	=3	=3	=3
Vb	4GG	4AA#	4F#	4c#	4f#
I	4CC	8BB	4B	[4d#	4f#
.	.	8AA#	.	.	.
viib/V	4FF#	4GG#	4B	8d#]	4g#
.	.	.	.	8e#	.
V	4GG	4FF#	4c#	[4f#	4a#
=4	=4	=4	=4	=4	=4
Ib	4CC	4D#	4B	8f#]	4b
.	.	.	.	8e#	.
Ic/V	4GG	4C#	4c#	[4f#	4a#
ii7b/V	4AA	4BB	4d#	4f#_	4g#
V/V	4DD	4C#	8.c#	8f#]	4g#
.	.	.	.	8e#	.
.	.	.	16B	.	.
=5	=5	=5	=5	=5	=5
V;	2GG;	2FF#;	2A#;	2c#;	2f#;
r	4r	4r	4r	4r	4r
Ib	4CC	4D#	4B	[4d#	4f#
!!linebreak: 3
=6	=6	=6	=6	=6	=6
ii7b	4DD	4E	4B	8d#]	4g#
.	.	.	.	[8c#	.
V7b/vi	4EE	4FF##	4A#	8c#]	4a#
.	.	.	.	8d#	.
vi;	4AA;	4GG#;	4G#;	4d#;	4b;
I	4CC	4BB	4D#	[4B	4f#
=7	=7	=7	=7	=7	=7
IV	4FF	4.E	4E	8B]	4g#
.	.	.	.	8A#	.
Ib	8CC	.	4F#	8B	4f#
viib/ii	8CC#	8D#	.	8B#	.
ii	4DD	8C#	4G#	8c#	4e
.	.	8D#	.	8B#	.
iib	4DD	8E	4G#	[4c#	4e
.	.	8C#	.	.	.
=8	=8	=8	=8	=8	=8
VI;	2AA;	2G#;	2G#;	4c#]	2d#;
.	.	.	.	4B#;	.
r	4r	4r	4r	4r	4r
Ib	4CC	4D#	4B	[4f#	4b
=9	=9	=9	=9	=9	=9
IV	4FF	8E	4B	8f#]	4g#
.	.	8D#	.	16e	.
.	.	.	.	16d#	.
viib	4BB	4C#	4c#	4e	4a#
I;	4CC;	4BB;	4F#;	4d#;	4b;
ii	4DD	[4C#	8c#	4e	4g#
.	.	.	8B	.	.
=10	=10	=10	=10	=10	=10
viioD7/ii	4CC#	8C#]	4A	[4d#	4f#
.	.	8BB#	.	.	.
ii	4DD	4C#	4G#	8d#]	4e
.	.	.	.	[8c#	.
VI;	4AA;	4GG#;	4G#;	8c#]	4d#;
.	.	.	.	8B#;	.
Vb	4GG	4AA#	[4F#	4c#	4f#
!!linebreak: 3
=11	=11	=11	=11	=11	=11
V7b/ii	4AA	4BB#	8F#]	4d#	4d#
.	.	.	[8G#	.	.
V7b/ii	4AA	4C##	8G#]	4A#	4e#
.	.	.	16F#	.	.
.	.	.	16E#	.	.
iii;	4EE;	4D#;	4D#;	4A#;	4f#;
Ib	8CC	8D#	8d#	8f#	4b
V7b/V	8DD	8E#	8c#	[8g#	.
=12	=12	=12	=12	=12	=12
V	4GG	4F#	4c#	8g#]	4a#
.	.	.	.	4f#	.
V/V	4DD	4C#	8.c#	.	4g#
.	.	.	.	8e#	.
.	.	.	16B	.	.
V;	4GG;	4FF#;	4A#;	4c#;	4f#;
Vb	4GG	4AA#	4F#	4c#	4f#
=13	=13	=13	=13	=13	=13
I	4CC	8BB	4F#	4B	8d#
.	.	8C#	.	.	8e
Ib	8CC	8D#	8B	4B	4f#
V7/IV	8CC	8BB	8A	.	.
IV	4FF	4E	8.G#	8B	4g#
.	.	.	.	4e	.
.	.	.	16A#	.	.
V/IV	4CC	[4BB	8.B	.	4f#
.	.	.	.	8d#	.
.	.	.	16A	.	.
=14	=14	=14	=14	=14	=14
ii7d	8DD	8BB]	8G#	4.c#	4e
V7b	8GG	8AA#	8F#	.	.
I	4CC	4BB	4F#	.	4d#
.	.	.	.	[8B	.
ii7b	8DD	4EE	8G#	8B]	4c#
viic	8BB	.	8C#	16A#	.
.	.	.	.	16G#	.
V	4GG	4FF#	8F#	4A#	4c#
.	.	.	8E	.	.
=15	=15	=15	=15	=15	=15
I;	1CC;	1BBB;	1D#;	1F#;	1B;
==	==	==	==	==	==
*-	*-	*-	*-	*-	*-
!!chor2scor: -l 3 -s 0.6 -o %b.pmx
!!!YEC: Copyright 1994, David Huron
!!!YEC: Changes/Additions 2001 by Craig Stuart Sapp
!!!YEN: United States of America
!!!SMA: 371 Bach Chorales, edited by Ludwig Erk, C.F. Peters
!!!PDT: 1850, 1865
!!!ONB: Harmony and Root analysis done manually
